X: 4
T: Market Lass  v.2
P: piffero secondo a0134
O: Dan Moylan
%R: march, reel
F: http://ancients.sudburymuster.org/mus/col/pdf/contraF.pdf
Z: 2019 John Chambers <jc:trillian.mit.edu>
M: 2/4
L: 1/16
K: G
|:\
B3c d2d2 | edc2 B4 | A4 F4 | A4 d4 |\
B3c d2d2 | edc2 B4 | A4 E4 | B4 d4 ::\
G2A2 B4 | c2B2 A4 | F2A2 G4 | F2d2 c4 | G2A2 B4 |
c2B2 A4 | F2D2 G2A2 | B4 z4 ::\
G4 A4 | B4 c4 | d4 c4 | B4 d4 |\
G4 A4 | B4 c4 | d4 B4 | F4 E4 |\
G4 A4 | B4 c4 | d4 c4 | B4 d4 |\
f4 G4 | A4 B4 | d4 d4 | B4 z2 :|


